X:99
T: ACH JOSEPH LIEBER JOSEPH
N: E0056A
O: Europa, Mitteleuropa, Deutschland, Brandenburg
R: erzaehlendes Volks - Lied, Sage, Kinds - Mord
M: 3/4
L: 1/8
K: G
D2 | GBd2BG | FAc2
GB | d2d2cB | A4
B2 | c2e2cA | B2d2
BG | A2d2cA | B4
B2 | c2e2cA | B2d2
BG | A2d2cA | G4

